X: 21533
T: La POSTE QUADRILLES No. 5.--Finale.
%R: jig
B: W. Hamilton "Universal Tune-Book" Vol. 2 Glasgow 1846 p.153 #3
S: http://s3-eu-west-1.amazonaws.com/itma.dl.printmaterial/book_pdfs/hamiltonvol2web.pdf
Z: 2016 John Chambers <jc:trillian.mit.edu>
M: 2/4
L: 1/16
K: G
% - - - - - - - - - - - - - - - - - - - - - - - - -
[|\
d2D2d2D2 | d2(^cd e2)d2 |\
c2(Bc d2)c2 | B2g2 d4 |\
d2D2d2D2 | d2(^cd e2)d2 |\
c2(Bc d2)c2 | B2A2 G4 |
"(8va"d2D2d2D2 | d2(^cd e2)d2 |\
c2(Bc d2)c2 | B2g2 d4 |\
d2D2d2D2 | d2(^cd e2)d2 |\
d2(Bc d2)c2 | B2z2 "8va)"g2z2 |]
(g2eg c'2)b2 | a2^g2=g2f2 |\
(=f2ef g2)B2 | d2c2 G4 |\
"(8va"G2EG c2B2 | (3(ABA) ^GA =f2d2 |\
B2a2g2B2 | c4 "8va)"c2z2 |
g2eg c'2b2 | a2^g2=g2f2 |\
(=f2ef g2)B2 | d2c2 G4 |\
"(8va"G2EG c2B2 | (3(ABA) ^GA B2c2 |\
G2^F2=F2D2 |C2EG "8va)"c4 "D.C."y|]
% - - - - - - - - - - - - - - - - - - - - - - - - -

%%sep 1 1 500
%%sep 1 1 500

